assets/icons/24px/stroke/grid-24px.svg

<svg width="24" height="24" viewBox="0 0 24 24" fill="none" xmlns="http://www.w3.org/2000/svg">
<path fill-rule="evenodd" clip-rule="evenodd" d="M6.93417 2C6.95604 2 6.97799 2 7 2L17.0658 2C17.9523 1.99995 18.7161 1.99991 19.3278 2.08215C19.9833 2.17028 20.6117 2.36902 21.1213 2.87868C21.631 3.38835 21.8297 4.0167 21.9179 4.67221C22.0001 5.28388 22.0001 6.0477 22 6.9342V17.0658C22.0001 17.9523 22.0001 18.7161 21.9179 19.3278C21.8297 19.9833 21.631 20.6117 21.1213 21.1213C20.6117 21.631 19.9833 21.8297 19.3278 21.9179C18.7161 22.0001 17.9523 22.0001 17.0658 22H6.9342C6.0477 22.0001 5.28388 22.0001 4.67221 21.9179C4.0167 21.8297 3.38835 21.631 2.87868 21.1213C2.36902 20.6117 2.17028 19.9833 2.08215 19.3278C1.99991 18.7161 1.99995 17.9523 2 17.0658L2 7C2 6.97799 2 6.95604 2 6.93417C1.99995 6.04769 1.99991 5.28387 2.08215 4.67221C2.17028 4.0167 2.36902 3.38835 2.87868 2.87868C3.38835 2.36902 4.0167 2.17028 4.67221 2.08215C5.28387 1.99991 6.04769 1.99995 6.93417 2ZM4.93871 4.06431C4.50497 4.12263 4.36902 4.21677 4.2929 4.2929C4.21677 4.36902 4.12263 4.50497 4.06431 4.93871C4.00213 5.40121 4 6.02893 4 7V17C4 17.9711 4.00213 18.5988 4.06431 19.0613C4.12263 19.495 4.21677 19.631 4.2929 19.7071C4.36902 19.7832 4.50497 19.8774 4.93871 19.9357C5.40121 19.9979 6.02893 20 7 20H17C17.9711 20 18.5988 19.9979 19.0613 19.9357C19.495 19.8774 19.631 19.7832 19.7071 19.7071C19.7832 19.631 19.8774 19.495 19.9357 19.0613C19.9979 18.5988 20 17.9711 20 17V7C20 6.02893 19.9979 5.40122 19.9357 4.93871C19.8774 4.50497 19.7832 4.36902 19.7071 4.2929C19.631 4.21677 19.495 4.12263 19.0613 4.06431C18.5988 4.00213 17.9711 4 17 4H7C6.02893 4 5.40122 4.00213 4.93871 4.06431Z" fill="white"/>
<path fill-rule="evenodd" clip-rule="evenodd" d="M7.5 2.5C7.77614 2.5 8 2.72386 8 3V7.45H11.5V3C11.5 2.72386 11.7239 2.5 12 2.5C12.2761 2.5 12.5 2.72386 12.5 3V7.45H16V3C16 2.72386 16.2239 2.5 16.5 2.5C16.7761 2.5 17 2.72386 17 3V7.45H21C21.2761 7.45 21.5 7.67386 21.5 7.95C21.5 8.22614 21.2761 8.45 21 8.45H17V11.5H21C21.2761 11.5 21.5 11.7239 21.5 12C21.5 12.2761 21.2761 12.5 21 12.5H17V15.55H21C21.2761 15.55 21.5 15.7739 21.5 16.05C21.5 16.3261 21.2761 16.55 21 16.55H17V21C17 21.2761 16.7761 21.5 16.5 21.5C16.2239 21.5 16 21.2761 16 21V16.55H12.5V21C12.5 21.2761 12.2761 21.5 12 21.5C11.7239 21.5 11.5 21.2761 11.5 21V16.55H8V21C8 21.2761 7.77614 21.5 7.5 21.5C7.22386 21.5 7 21.2761 7 21V16.55H3C2.72386 16.55 2.5 16.3261 2.5 16.05C2.5 15.7739 2.72386 15.55 3 15.55H7V12.5H3C2.72386 12.5 2.5 12.2761 2.5 12C2.5 11.7239 2.72386 11.5 3 11.5H7V8.45H3C2.72386 8.45 2.5 8.22614 2.5 7.95C2.5 7.67386 2.72386 7.45 3 7.45H7V3C7 2.72386 7.22386 2.5 7.5 2.5ZM8 8.45V11.5H11.5V8.45H8ZM12.5 8.45V11.5H16V8.45H12.5ZM16 12.5H12.5V15.55H16V12.5ZM11.5 15.55V12.5H8V15.55H11.5Z" fill="white"/>
</svg>

<svg width="24" height="24" fill="none" xmlns="http://www.w3.org/2000/svg"><path fill-rule="evenodd" clip-rule="evenodd" d="M6.934 2H17.066c.886 0 1.65 0 2.262.082.655.088 1.284.287 1.793.797.51.51.709 1.138.797 1.793C22 5.284 22 6.048 22 6.934v10.132c0 .886 0 1.65-.082 2.262-.088.655-.287 1.284-.797 1.793-.51.51-1.138.709-1.793.797-.612.082-1.376.082-2.262.082H6.934c-.886 0-1.65 0-2.262-.082-.655-.088-1.284-.287-1.793-.797-.51-.51-.709-1.138-.797-1.793C2 18.716 2 17.952 2 17.066V7v-.066c0-.886 0-1.65.082-2.262.088-.655.287-1.284.797-1.793.51-.51 1.138-.709 1.793-.797C5.284 2 6.048 2 6.934 2zM4.94 4.064c-.434.059-.57.153-.646.229-.076.076-.17.212-.229.646C4.002 5.4 4 6.029 4 7v10c0 .971.002 1.599.064 2.061.059.434.153.57.229.646.076.076.212.17.646.229C5.4 19.998 6.029 20 7 20h10c.971 0 1.599-.002 2.061-.064.434-.059.57-.153.646-.229.076-.076.17-.212.229-.646.062-.462.064-1.09.064-2.061V7c0-.971-.002-1.599-.064-2.061-.059-.434-.153-.57-.229-.646-.076-.076-.212-.17-.646-.229C18.6 4.002 17.971 4 17 4H7c-.971 0-1.599.002-2.061.064z" fill="#fff"/><path fill-rule="evenodd" clip-rule="evenodd" d="M7.5 2.5A.5.5 0 0 1 8 3v4.45h3.5V3a.5.5 0 0 1 1 0v4.45H16V3a.5.5 0 0 1 1 0v4.45h4a.5.5 0 0 1 0 1h-4v3.05h4a.5.5 0 0 1 0 1h-4v3.05h4a.5.5 0 0 1 0 1h-4V21a.5.5 0 0 1-1 0v-4.45h-3.5V21a.5.5 0 0 1-1 0v-4.45H8V21a.5.5 0 0 1-1 0v-4.45H3a.5.5 0 0 1 0-1h4V12.5H3a.5.5 0 0 1 0-1h4V8.45H3a.5.5 0 0 1 0-1h4V3a.5.5 0 0 1 .5-.5zM8 8.45v3.05h3.5V8.45H8zm4.5 0v3.05H16V8.45h-3.5zM16 12.5h-3.5v3.05H16V12.5zm-4.5 3.05V12.5H8v3.05h3.5z" fill="#fff"/></svg>
